X:30
T:Dandies O,The. RHu.030
S:R.Hughes MS,1823,Whitchurch,Shrops.
A:Whitchurch, Shropshire
Z:Neil Brookes 2006
M:4/4
L:1/8
Q:1/4=100
R:Air
K:F
c2|cf.f.f fedc|cf.f.f fedc|cf.f.f fac’a|ge c4 za|!
agab c’2 af|fdcB BABc|defd gfed|c2f>g f|]

